images/226119.svg

<?xml version="1.0" encoding="UTF-8"?>
<svg xmlns="http://www.w3.org/2000/svg" xmlns:xlink="http://www.w3.org/1999/xlink" width="300pt" height="300pt" viewBox="0 0 300 300" version="1.1">
<defs>
<g>
<symbol overflow="visible" id="glyph0-0">
<path style="stroke:none;" d="M 0.59375 2.125 L 0.59375 -8.46875 L 6.59375 -8.46875 L 6.59375 2.125 Z M 1.265625 1.453125 L 5.9375 1.453125 L 5.9375 -7.78125 L 1.265625 -7.78125 Z M 1.265625 1.453125 "/>
</symbol>
<symbol overflow="visible" id="glyph0-1">
<path style="stroke:none;" d="M 1.171875 -8.75 L 2.359375 -8.75 L 2.359375 -5.15625 L 6.65625 -5.15625 L 6.65625 -8.75 L 7.84375 -8.75 L 7.84375 0 L 6.65625 0 L 6.65625 -4.171875 L 2.359375 -4.171875 L 2.359375 0 L 1.171875 0 Z M 1.171875 -8.75 "/>
</symbol>
<symbol overflow="visible" id="glyph0-2">
<path style="stroke:none;" d="M 4.734375 -7.953125 C 3.867188 -7.953125 3.179688 -7.628906 2.671875 -6.984375 C 2.171875 -6.347656 1.921875 -5.472656 1.921875 -4.359375 C 1.921875 -3.265625 2.171875 -2.394531 2.671875 -1.75 C 3.179688 -1.113281 3.867188 -0.796875 4.734375 -0.796875 C 5.585938 -0.796875 6.265625 -1.113281 6.765625 -1.75 C 7.273438 -2.394531 7.53125 -3.265625 7.53125 -4.359375 C 7.53125 -5.472656 7.273438 -6.347656 6.765625 -6.984375 C 6.265625 -7.628906 5.585938 -7.953125 4.734375 -7.953125 Z M 4.734375 -8.90625 C 5.953125 -8.90625 6.925781 -8.492188 7.65625 -7.671875 C 8.394531 -6.847656 8.765625 -5.742188 8.765625 -4.359375 C 8.765625 -2.984375 8.394531 -1.882812 7.65625 -1.0625 C 6.925781 -0.238281 5.953125 0.171875 4.734375 0.171875 C 3.503906 0.171875 2.519531 -0.238281 1.78125 -1.0625 C 1.039062 -1.882812 0.671875 -2.984375 0.671875 -4.359375 C 0.671875 -5.742188 1.039062 -6.847656 1.78125 -7.671875 C 2.519531 -8.492188 3.503906 -8.90625 4.734375 -8.90625 Z M 4.734375 -8.90625 "/>
</symbol>
<symbol overflow="visible" id="glyph0-3">
<path style="stroke:none;" d="M 1.171875 -8.75 L 2.765625 -8.75 L 6.65625 -1.4375 L 6.65625 -8.75 L 7.796875 -8.75 L 7.796875 0 L 6.203125 0 L 2.328125 -7.3125 L 2.328125 0 L 1.171875 0 Z M 1.171875 -8.75 "/>
</symbol>
</g>
</defs>
<g id="surface12013">
<rect x="0" y="0" width="300" height="300" style="fill:rgb(100%,100%,100%);fill-opacity:1;stroke:none;"/>
<path style=" stroke:none;fill-rule:nonzero;fill:rgb(0%,0%,0%);fill-opacity:1;" d="M 226.4375 128.371094 L 203.03125 149.09375 L 211.535156 155.851562 Z M 226.4375 128.371094 "/>
<path style=" stroke:none;fill-rule:nonzero;fill:rgb(100%,100%,100%);fill-opacity:1;" d="M 188.28125 145.472656 L 207.28125 145.472656 L 207.28125 159.472656 L 188.28125 159.472656 Z M 188.28125 145.472656 "/>
<g style="fill:rgb(100%,0%,0%);fill-opacity:1;">
  <use xlink:href="#glyph0-1" x="188.28125" y="156.611328"/>
  <use xlink:href="#glyph0-2" x="197.304688" y="156.611328"/>
</g>
<path style="fill:none;stroke-width:1.2;stroke-linecap:butt;stroke-linejoin:miter;stroke:rgb(0%,0%,0%);stroke-opacity:1;stroke-miterlimit:10;" d="M 226.4375 128.371094 L 215.144531 99.730469 "/>
<path style="fill:none;stroke-width:1.2;stroke-linecap:butt;stroke-linejoin:miter;stroke:rgb(0%,0%,0%);stroke-opacity:1;stroke-miterlimit:10;" d="M 226.4375 128.371094 L 256.890625 132.910156 "/>
<path style=" stroke:none;fill-rule:nonzero;fill:rgb(0%,0%,0%);fill-opacity:1;" d="M 215.144531 99.730469 L 185.496094 89.820312 L 183.894531 100.566406 Z M 215.144531 99.730469 "/>
<path style="fill:none;stroke-width:1.2;stroke-linecap:butt;stroke-linejoin:miter;stroke:rgb(0%,0%,0%);stroke-opacity:1;stroke-miterlimit:10;" d="M 215.144531 99.730469 L 234.300781 75.628906 "/>
<path style="fill:none;stroke-width:1.2;stroke-linecap:butt;stroke-linejoin:miter;stroke:rgb(0%,0%,100%);stroke-opacity:1;stroke-miterlimit:10;" d="M 184.695312 95.191406 L 175.117188 107.242188 "/>
<path style="fill:none;stroke-width:1.2;stroke-linecap:butt;stroke-linejoin:miter;stroke:rgb(0%,0%,0%);stroke-opacity:1;stroke-miterlimit:10;" d="M 175.117188 107.242188 L 165.539062 119.292969 "/>
<path style=" stroke:none;fill-rule:nonzero;fill:rgb(100%,100%,100%);fill-opacity:1;" d="M 175.695312 88.191406 L 193.695312 88.191406 L 193.695312 102.191406 L 175.695312 102.191406 Z M 175.695312 88.191406 "/>
<g style="fill:rgb(0%,0%,100%);fill-opacity:1;">
  <use xlink:href="#glyph0-3" x="175.695312" y="99.330078"/>
  <use xlink:href="#glyph0-1" x="184.671875" y="99.330078"/>
</g>
<path style="fill:none;stroke-width:1.2;stroke-linecap:butt;stroke-linejoin:miter;stroke:rgb(0%,0%,0%);stroke-opacity:1;stroke-miterlimit:10;" d="M 165.539062 119.292969 L 171.1875 133.613281 "/>
<path style="fill:none;stroke-width:1.2;stroke-linecap:butt;stroke-linejoin:miter;stroke:rgb(0%,0%,100%);stroke-opacity:1;stroke-miterlimit:10;" d="M 171.1875 133.613281 L 176.832031 147.933594 "/>
<path style="fill:none;stroke-width:1.2;stroke-linecap:butt;stroke-linejoin:miter;stroke:rgb(0%,0%,0%);stroke-opacity:1;stroke-miterlimit:10;" d="M 159.929688 124.816406 L 164.445312 136.273438 "/>
<path style="fill:none;stroke-width:1.2;stroke-linecap:butt;stroke-linejoin:miter;stroke:rgb(0%,0%,100%);stroke-opacity:1;stroke-miterlimit:10;" d="M 164.445312 136.273438 L 168.964844 147.726562 "/>
<path style="fill:none;stroke-width:1.2;stroke-linecap:butt;stroke-linejoin:miter;stroke:rgb(0%,0%,100%);stroke-opacity:1;stroke-miterlimit:10;" d="M 135.089844 114.753906 L 150.3125 117.023438 "/>
<path style="fill:none;stroke-width:1.2;stroke-linecap:butt;stroke-linejoin:miter;stroke:rgb(0%,0%,0%);stroke-opacity:1;stroke-miterlimit:10;" d="M 150.3125 117.023438 L 165.539062 119.292969 "/>
<path style="fill:none;stroke-width:1.2;stroke-linecap:butt;stroke-linejoin:miter;stroke:rgb(0%,0%,100%);stroke-opacity:1;stroke-miterlimit:10;" d="M 176.832031 147.933594 L 167.253906 159.984375 "/>
<path style="fill:none;stroke-width:1.2;stroke-linecap:butt;stroke-linejoin:miter;stroke:rgb(0%,0%,0%);stroke-opacity:1;stroke-miterlimit:10;" d="M 167.253906 159.984375 L 157.675781 172.035156 "/>
<path style=" stroke:none;fill-rule:nonzero;fill:rgb(100%,100%,100%);fill-opacity:1;" d="M 172.832031 140.933594 L 181.832031 140.933594 L 181.832031 154.933594 L 172.832031 154.933594 Z M 172.832031 140.933594 "/>
<g style="fill:rgb(0%,0%,100%);fill-opacity:1;">
  <use xlink:href="#glyph0-3" x="172.832031" y="152.072266"/>
</g>
<path style="fill:none;stroke-width:1.2;stroke-linecap:butt;stroke-linejoin:miter;stroke:rgb(0%,0%,0%);stroke-opacity:1;stroke-miterlimit:10;" d="M 157.675781 172.035156 L 163.324219 186.355469 "/>
<path style="fill:none;stroke-width:1.2;stroke-linecap:butt;stroke-linejoin:miter;stroke:rgb(0%,0%,100%);stroke-opacity:1;stroke-miterlimit:10;" d="M 163.324219 186.355469 L 168.972656 200.675781 "/>
<path style="fill:none;stroke-width:1.2;stroke-linecap:butt;stroke-linejoin:miter;stroke:rgb(0%,0%,0%);stroke-opacity:1;stroke-miterlimit:10;" d="M 157.675781 172.035156 L 127.226562 167.496094 "/>
<path style="fill:none;stroke-width:1.2;stroke-linecap:butt;stroke-linejoin:miter;stroke:rgb(0%,0%,0%);stroke-opacity:1;stroke-miterlimit:10;" d="M 155.699219 164.417969 L 131.339844 160.785156 "/>
<path style="fill:none;stroke-width:1.2;stroke-linecap:butt;stroke-linejoin:miter;stroke:rgb(0%,0%,100%);stroke-opacity:1;stroke-miterlimit:10;" d="M 168.972656 200.675781 L 184.195312 202.945312 "/>
<path style="fill:none;stroke-width:1.2;stroke-linecap:butt;stroke-linejoin:miter;stroke:rgb(0%,0%,0%);stroke-opacity:1;stroke-miterlimit:10;" d="M 184.195312 202.945312 L 199.421875 205.214844 "/>
<path style=" stroke:none;fill-rule:nonzero;fill:rgb(100%,100%,100%);fill-opacity:1;" d="M 159.972656 193.675781 L 177.972656 193.675781 L 177.972656 207.675781 L 159.972656 207.675781 Z M 159.972656 193.675781 "/>
<g style="fill:rgb(0%,0%,100%);fill-opacity:1;">
  <use xlink:href="#glyph0-3" x="159.972656" y="204.814453"/>
  <use xlink:href="#glyph0-1" x="168.949219" y="204.814453"/>
</g>
<path style="fill:none;stroke-width:1.2;stroke-linecap:butt;stroke-linejoin:miter;stroke:rgb(0%,0%,0%);stroke-opacity:1;stroke-miterlimit:10;" d="M 199.421875 205.214844 L 228.0625 193.917969 "/>
<path style="fill:none;stroke-width:1.2;stroke-linecap:butt;stroke-linejoin:miter;stroke:rgb(0%,0%,0%);stroke-opacity:1;stroke-miterlimit:10;" d="M 223.523438 224.371094 L 199.421875 205.214844 "/>
<path style="fill:none;stroke-width:1.2;stroke-linecap:butt;stroke-linejoin:miter;stroke:rgb(0%,0%,0%);stroke-opacity:1;stroke-miterlimit:10;" d="M 228.0625 193.917969 L 223.523438 224.371094 "/>
<path style="fill:none;stroke-width:1.2;stroke-linecap:butt;stroke-linejoin:miter;stroke:rgb(0%,0%,0%);stroke-opacity:1;stroke-miterlimit:10;" d="M 127.226562 167.496094 L 115.351562 177.292969 "/>
<path style="fill:none;stroke-width:1.2;stroke-linecap:butt;stroke-linejoin:miter;stroke:rgb(0%,0%,100%);stroke-opacity:1;stroke-miterlimit:10;" d="M 115.351562 177.292969 L 103.480469 187.089844 "/>
<path style="fill:none;stroke-width:1.2;stroke-linecap:butt;stroke-linejoin:miter;stroke:rgb(0%,0%,0%);stroke-opacity:1;stroke-miterlimit:10;" d="M 115.933594 138.855469 L 127.226562 167.496094 "/>
<path style="fill:none;stroke-width:1.2;stroke-linecap:butt;stroke-linejoin:miter;stroke:rgb(0%,0%,100%);stroke-opacity:1;stroke-miterlimit:10;" d="M 103.480469 187.089844 L 90.492188 178.824219 "/>
<path style="fill:none;stroke-width:1.2;stroke-linecap:butt;stroke-linejoin:miter;stroke:rgb(0%,0%,0%);stroke-opacity:1;stroke-miterlimit:10;" d="M 90.492188 178.824219 L 77.507812 170.558594 "/>
<path style="fill:none;stroke-width:1.2;stroke-linecap:butt;stroke-linejoin:miter;stroke:rgb(0%,0%,100%);stroke-opacity:1;stroke-miterlimit:10;" d="M 104.773438 179.324219 L 94.382812 172.710938 "/>
<path style="fill:none;stroke-width:1.2;stroke-linecap:butt;stroke-linejoin:miter;stroke:rgb(0%,0%,0%);stroke-opacity:1;stroke-miterlimit:10;" d="M 94.382812 172.710938 L 83.996094 166.097656 "/>
<path style=" stroke:none;fill-rule:nonzero;fill:rgb(100%,100%,100%);fill-opacity:1;" d="M 99.480469 180.089844 L 108.480469 180.089844 L 108.480469 194.089844 L 99.480469 194.089844 Z M 99.480469 180.089844 "/>
<g style="fill:rgb(0%,0%,100%);fill-opacity:1;">
  <use xlink:href="#glyph0-3" x="99.480469" y="191.228516"/>
</g>
<path style="fill:none;stroke-width:1.2;stroke-linecap:butt;stroke-linejoin:miter;stroke:rgb(0%,0%,0%);stroke-opacity:1;stroke-miterlimit:10;" d="M 77.507812 170.558594 L 81.355469 155.652344 "/>
<path style="fill:none;stroke-width:1.2;stroke-linecap:butt;stroke-linejoin:miter;stroke:rgb(0%,0%,100%);stroke-opacity:1;stroke-miterlimit:10;" d="M 81.355469 155.652344 L 85.203125 140.75 "/>
<path style="fill:none;stroke-width:1.2;stroke-linecap:butt;stroke-linejoin:miter;stroke:rgb(0%,0%,100%);stroke-opacity:1;stroke-miterlimit:10;" d="M 85.203125 140.75 L 100.570312 139.800781 "/>
<path style="fill:none;stroke-width:1.2;stroke-linecap:butt;stroke-linejoin:miter;stroke:rgb(0%,0%,0%);stroke-opacity:1;stroke-miterlimit:10;" d="M 100.570312 139.800781 L 115.933594 138.855469 "/>
<path style="fill:none;stroke-width:1.2;stroke-linecap:butt;stroke-linejoin:miter;stroke:rgb(0%,0%,100%);stroke-opacity:1;stroke-miterlimit:10;" d="M 85.203125 140.75 L 75.410156 128.875 "/>
<path style="fill:none;stroke-width:1.2;stroke-linecap:butt;stroke-linejoin:miter;stroke:rgb(0%,0%,0%);stroke-opacity:1;stroke-miterlimit:10;" d="M 75.410156 128.875 L 65.613281 117 "/>
<path style=" stroke:none;fill-rule:nonzero;fill:rgb(100%,100%,100%);fill-opacity:1;" d="M 81.203125 133.75 L 90.203125 133.75 L 90.203125 147.75 L 81.203125 147.75 Z M 81.203125 133.75 "/>
<g style="fill:rgb(0%,0%,100%);fill-opacity:1;">
  <use xlink:href="#glyph0-3" x="81.203125" y="144.888672"/>
</g>
<path style="fill:none;stroke-width:1.2;stroke-linecap:butt;stroke-linejoin:miter;stroke:rgb(0%,0%,0%);stroke-opacity:1;stroke-miterlimit:10;" d="M 115.933594 138.855469 L 125.511719 126.804688 "/>
<path style="fill:none;stroke-width:1.2;stroke-linecap:butt;stroke-linejoin:miter;stroke:rgb(0%,0%,100%);stroke-opacity:1;stroke-miterlimit:10;" d="M 125.511719 126.804688 L 135.089844 114.753906 "/>
<path style="fill:none;stroke-width:1.2;stroke-linecap:butt;stroke-linejoin:miter;stroke:rgb(0%,0%,0%);stroke-opacity:1;stroke-miterlimit:10;" d="M 123.519531 140.953125 L 131.179688 131.3125 "/>
<path style="fill:none;stroke-width:1.2;stroke-linecap:butt;stroke-linejoin:miter;stroke:rgb(0%,0%,100%);stroke-opacity:1;stroke-miterlimit:10;" d="M 131.179688 131.3125 L 138.84375 121.671875 "/>
<path style=" stroke:none;fill-rule:nonzero;fill:rgb(100%,100%,100%);fill-opacity:1;" d="M 131.089844 107.753906 L 140.089844 107.753906 L 140.089844 121.753906 L 131.089844 121.753906 Z M 131.089844 107.753906 "/>
<g style="fill:rgb(0%,0%,100%);fill-opacity:1;">
  <use xlink:href="#glyph0-3" x="131.089844" y="118.892578"/>
</g>
<path style="fill:none;stroke-width:1.2;stroke-linecap:butt;stroke-linejoin:miter;stroke:rgb(0%,0%,0%);stroke-opacity:1;stroke-miterlimit:10;" d="M 65.613281 117 L 35.25 122.09375 "/>
<path style="fill:none;stroke-width:1.2;stroke-linecap:butt;stroke-linejoin:miter;stroke:rgb(0%,0%,0%);stroke-opacity:1;stroke-miterlimit:10;" d="M 65.613281 117 L 76.382812 88.160156 "/>
<path style="fill:none;stroke-width:1.2;stroke-linecap:butt;stroke-linejoin:miter;stroke:rgb(0%,0%,0%);stroke-opacity:1;stroke-miterlimit:10;" d="M 234.300781 75.628906 L 264.75 80.167969 "/>
</g>
</svg>

<svg xmlns="http://www.w3.org/2000/svg" xmlns:xlink="http://www.w3.org/1999/xlink" width="300pt" height="300pt" viewBox="0 0 300 300"><defs><symbol overflow="visible"><path d="M.594 2.125V-8.47h6V2.126zm.672-.672h4.671V-7.78h-4.67zm0 0"/></symbol><symbol overflow="visible" id="a"><path d="M1.172-8.75H2.36v3.594h4.296V-8.75h1.188V0H6.656v-4.172H2.36V0H1.17zm0 0"/></symbol><symbol overflow="visible" id="b"><path d="M4.734-7.953c-.867 0-1.554.324-2.062.97-.5.635-.75 1.51-.75 2.624 0 1.094.25 1.965.75 2.61.508.637 1.195.953 2.062.953.852 0 1.532-.316 2.032-.953.507-.645.765-1.516.765-2.61 0-1.113-.257-1.988-.764-2.624-.5-.645-1.18-.97-2.032-.97zm0-.953c1.22 0 2.192.414 2.922 1.234.74.824 1.11 1.93 1.11 3.313 0 1.376-.37 2.477-1.11 3.298C6.926-.24 5.953.17 4.734.17c-1.23 0-2.214-.41-2.953-1.234C1.04-1.882.673-2.984.673-4.36c0-1.382.367-2.488 1.11-3.312.738-.82 1.722-1.234 2.952-1.234zm0 0"/></symbol><symbol overflow="visible" id="c"><path d="M1.172-8.75h1.594l3.89 7.313V-8.75h1.14V0H6.204L2.328-7.313V0H1.172zm0 0"/></symbol></defs><g><path fill="#fff" d="M0 0h300v300H0z"/><path d="M226.438 128.37l-23.407 20.724 8.505 6.758zm0 0"/><path d="M188.28 145.473h19v14h-19zm0 0" fill="#fff"/><g fill="#f00"><use xlink:href="#a" x="188.281" y="156.611"/><use xlink:href="#b" x="197.305" y="156.611"/></g><path d="M226.438 128.37l-11.293-28.64M226.438 128.37l30.453 4.54" stroke-width="1.2" stroke="#000" stroke-miterlimit="10" fill="none"/><path d="M215.145 99.73l-29.65-9.91-1.6 10.746zm0 0"/><path d="M215.145 99.73l19.156-24.1" stroke-width="1.2" stroke="#000" stroke-miterlimit="10" fill="none"/><path d="M184.695 95.19l-9.578 12.052" stroke-width="1.2" stroke="#00f" stroke-miterlimit="10" fill="none"/><path d="M175.117 107.242l-9.578 12.05" stroke-width="1.2" stroke="#000" stroke-miterlimit="10" fill="none"/><path d="M175.695 88.19h18v14h-18zm0 0" fill="#fff"/><g fill="#00f"><use xlink:href="#c" x="175.695" y="99.33"/><use xlink:href="#a" x="184.672" y="99.33"/></g><path d="M165.54 119.293l5.648 14.32" stroke-width="1.2" stroke="#000" stroke-miterlimit="10" fill="none"/><path d="M171.188 133.613l5.644 14.32" stroke-width="1.2" stroke="#00f" stroke-miterlimit="10" fill="none"/><path d="M159.93 124.816l4.515 11.457" stroke-width="1.2" stroke="#000" stroke-miterlimit="10" fill="none"/><path d="M164.445 136.273l4.52 11.454M135.09 114.754l15.222 2.27" stroke-width="1.2" stroke="#00f" stroke-miterlimit="10" fill="none"/><path d="M150.313 117.023l15.226 2.27" stroke-width="1.2" stroke="#000" stroke-miterlimit="10" fill="none"/><path d="M176.832 147.934l-9.578 12.05" stroke-width="1.2" stroke="#00f" stroke-miterlimit="10" fill="none"/><path d="M167.254 159.984l-9.578 12.05" stroke-width="1.2" stroke="#000" stroke-miterlimit="10" fill="none"/><path d="M172.832 140.934h9v14h-9zm0 0" fill="#fff"/><use xlink:href="#c" x="172.832" y="152.072" fill="#00f"/><path d="M157.676 172.035l5.648 14.32" stroke-width="1.2" stroke="#000" stroke-miterlimit="10" fill="none"/><path d="M163.324 186.355l5.65 14.32" stroke-width="1.2" stroke="#00f" stroke-miterlimit="10" fill="none"/><path d="M157.676 172.035l-30.45-4.54M155.7 164.418l-24.36-3.633" stroke-width="1.2" stroke="#000" stroke-miterlimit="10" fill="none"/><path d="M168.973 200.676l15.222 2.27" stroke-width="1.2" stroke="#00f" stroke-miterlimit="10" fill="none"/><path d="M184.195 202.945l15.227 2.27" stroke-width="1.2" stroke="#000" stroke-miterlimit="10" fill="none"/><path d="M159.973 193.676h18v14h-18zm0 0" fill="#fff"/><g fill="#00f"><use xlink:href="#c" x="159.973" y="204.814"/><use xlink:href="#a" x="168.949" y="204.814"/></g><path d="M199.422 205.215l28.64-11.297M223.523 224.37l-24.1-19.155M228.063 193.918l-4.54 30.453M127.227 167.496l-11.875 9.797" stroke-width="1.2" stroke="#000" stroke-miterlimit="10" fill="none"/><path d="M115.352 177.293l-11.872 9.797" stroke-width="1.2" stroke="#00f" stroke-miterlimit="10" fill="none"/><path d="M115.934 138.855l11.293 28.64" stroke-width="1.2" stroke="#000" stroke-miterlimit="10" fill="none"/><path d="M103.48 187.09l-12.988-8.266" stroke-width="1.2" stroke="#00f" stroke-miterlimit="10" fill="none"/><path d="M90.492 178.824l-12.984-8.265" stroke-width="1.2" stroke="#000" stroke-miterlimit="10" fill="none"/><path d="M104.773 179.324l-10.39-6.613" stroke-width="1.2" stroke="#00f" stroke-miterlimit="10" fill="none"/><path d="M94.383 172.71L83.996 166.1" stroke-width="1.2" stroke="#000" stroke-miterlimit="10" fill="none"/><path d="M99.48 180.09h9v14h-9zm0 0" fill="#fff"/><use xlink:href="#c" x="99.48" y="191.229" fill="#00f"/><path d="M77.508 170.56l3.847-14.908" stroke-width="1.2" stroke="#000" stroke-miterlimit="10" fill="none"/><path d="M81.355 155.652l3.848-14.902M85.203 140.75l15.367-.95" stroke-width="1.2" stroke="#00f" stroke-miterlimit="10" fill="none"/><path d="M100.57 139.8l15.364-.945" stroke-width="1.2" stroke="#000" stroke-miterlimit="10" fill="none"/><path d="M85.203 140.75l-9.793-11.875" stroke-width="1.2" stroke="#00f" stroke-miterlimit="10" fill="none"/><path d="M75.41 128.875L65.613 117" stroke-width="1.2" stroke="#000" stroke-miterlimit="10" fill="none"/><path d="M81.203 133.75h9v14h-9zm0 0" fill="#fff"/><use xlink:href="#c" x="81.203" y="144.889" fill="#00f"/><path d="M115.934 138.855l9.578-12.05" stroke-width="1.2" stroke="#000" stroke-miterlimit="10" fill="none"/><path d="M125.512 126.805l9.578-12.05" stroke-width="1.2" stroke="#00f" stroke-miterlimit="10" fill="none"/><path d="M123.52 140.953l7.66-9.64" stroke-width="1.2" stroke="#000" stroke-miterlimit="10" fill="none"/><path d="M131.18 131.313l7.664-9.64" stroke-width="1.2" stroke="#00f" stroke-miterlimit="10" fill="none"/><path d="M131.09 107.754h9v14h-9zm0 0" fill="#fff"/><use xlink:href="#c" x="131.09" y="118.893" fill="#00f"/><path d="M65.613 117l-30.363 5.094M65.613 117l10.77-28.84M234.3 75.63l30.45 4.538" stroke-width="1.2" stroke="#000" stroke-miterlimit="10" fill="none"/></g></svg>
